!!!!SEGMENT: pl-sa--l-1643--098_anonim--haec-est-dies-quam-fecit-dominus.krn
!!!cenid: 16xx:1456
!!!COM: Anonim
!!!COM-rismid: pe30004985
!!!CDT:
!!!CNT:
!!!OTL: Haec est dies quam fecit Dominus
!!!PDT:
!!!AGN: Sacred
!!!SMS-siglum: PL-SA
!!!SMS-shelfmark: L 1643
!!!SMS-shelfwork: 098 W
!!!SMS-variant:
!!!SMS-altvar:
!!!NIFC-rismid: 1001064155
!!!URL-scan: http://repozytorium.nifc.pl/skany/pl-sa-nut--l1643
!!!ONB-nifc: UWAGA: 8 ksiąg. Primi chori: 1mus Cantus (x), C 2dus (165), C 3tius (x), Bassus (88-89); Secondi chori: Primus Cantus (x), C 2dus (x), Altus (x), Bassus (118). UWAGA: Nie dodawać pustych linii, chyba że w rękopisie pojawiają się dodatkowe oznaczenia dotyczące pełnej obsady (a 4, a 8 itp.)
**kern	**text	**kern	**text	**kern	**text
*group2	*	*group1	*	*group1	*
*part3	*part3	*part2	*part2	*part1	*part1
*staff3	*staff3	*staff2	*staff2	*staff1	*staff1
*Iempty	*	*Iempty	*	*Iempty	*
*I"Baſsus 2di Chori	*	*I"Bassus Primi Chori.	*	*I"Cantus 2dus Primi Chori.	*
*I'[Coro 2 B]	*	*I'[Coro 1 B]	*	*I'[Coro 1 C 2]	*
*clefC3	*	*clefC3	*	*clefC1	*
*k[]	*	*k[b-]	*	*k[]	*
*c:	*	*c:	*	*c:	*
*M2/1	*	*M2/1	*	*M2/1	*
*met(C|)	*	*met(C|)	*	*met(C|)	*
=1-	=1-	=1-	=1-	=1-	=1-
!	!	!LO:TX:t=P:problem:przy kluczu jeden bemol	!	!	!
00r	.	1c	Haec	2.g/	Hec
.	.	.	.	4a\	.
.	.	1B-	eſt	1b	eſt
=2-	=2-	=2-	=2-	=2-	=2-
.	.	1A	di-	1cc	di-
.	.	2G/	-es	2dd\	-es
.	.	2c/	quam	2cc\	quam
=3-	=3-	=3-	=3-	=3-	=3-
0r	.	2f\	fe-	2a\	fe-
.	.	2c/	-cit	2cc\	-cit
.	.	2.G/	Do-	2.b\	do-
.	.	4G/	-mi-	4b\	-mi-
=4-	=4-	=4-	=4-	=4-	=4-
2r	.	1c	-nus	1cc	-nus
2c/	Haec	.	.	.	.
2.d\	eſt	00r	.	00r	.
4e\	.	.	.	.	.
=5-	=5-	=5-	=5-	=5-	=5-
1f	di-	.	.	.	.
2d\	-es	.	.	.	.
2c/	qua(m)	.	.	.	.
=6-	=6-	=6-	=6-	=6-	=6-
2f\	fe-	.	.	.	.
2c/	-cit	.	.	.	.
2.G/	Do-	1r	.	1r	.
4G/	-mi-	.	.	.	.
=7-	=7-	=7-	=7-	=7-	=7-
2c,>/	-nus	2r	.	2r	.
2r	.	2c/	quam	2cc\	quam
1r	.	1f	fe-	1cc	fe-
=8-	=8-	=8-	=8-	=8-	=8-
2r	.	2c/	-cit	2cc\	-cit
2c,>/	qua(m)	2r	.	2r	.
1G	fe-	1r	.	1r	.
=9-	=9-	=9-	=9-	=9-	=9-
2c,>/	-cit	2r	.	2r	.
*	*	*	*ij	*	*
2r	.	2c/	quam	2cc\	qua(m)
1r	.	1f	fe-	1cc	fe-
=10-	=10-	=10-	=10-	=10-	=10-
2r	.	2c/	-cit	2cc\	-cit
*	*	*	*Xij	*	*
2c,>/	qua(m)	2r	.	2r	.
1G	fe-	0r	.	0r	.
=11-	=11-	=11-	=11-	=11-	=11-
1c,>	-cit	.	.	.	.
1.G	Do	1.g	Do-	1.dd	do-
=12-	=12-	=12-	=12-	=12-	=12-
.	.	.	.	.	.
!LO:SIC:v:t=custos G	!	!	!	!	!
!LO:LB:g=original	!	!	!	!	!
2G/	.	2g\	-mi-	2dd\	-mi-
!	!	!LO:SIC:v:t=custos c	!	!	!
!	!	!LO:LB:g=original	!	!	!
=13-	=13-	=13-	=13-	=13-	=13-
*M3/1	*	*M3/1	*	*M3/1	*
!LO:TX:t=P:problem:w źródle metrum 3/2	!	!LO:TX:t=P:problem:w źródle metrum 3/2	!	!LO:TX:t=P:problem:w źródle metrum 3/2	!
1c	.	1c	-nus	1cc,>	-nus
1r	.	1g	e-	1b	e-
1r	.	1c	-xul-	1a	-xul-
=14-	=14-	=14-	=14-	=14-	=14-
00.r	.	0c	-te-	0cc	-te-
.	.	1g	-mus	1b	-mus
=15-	=15-	=15-	=15-	=15-	=15-
!	!	!	!	!LO:TX:t=P:problem:et zapisane pod mus	!
.	.	0f	et	0cc	et
!	!	!	!	!LO:SIC:v:t=custos cc	!
!	!	!	!	!LO:LB:g=original	!
.	.	1c	le-	1cc	le-
=16-	=16-	=16-	=16-	=16-	=16-
00.r	.	0d	-te-	0a	-te-
.	.	1d	-mur	1a	-mur
=17-	=17-	=17-	=17-	=17-	=17-
.	.	1c	in	1cc	in
.	.	0g	e-	0b	e-
=18-	=18-	=18-	=18-	=18-	=18-
1r	.	1c	-a	1cc	-a
1c	E-	1r	.	1r	.
1B,>	-xul-	1r	.	1r	.
=19-	=19-	=19-	=19-	=19-	=19-
0c	-te-	00.r	.	00.r	.
1g,>	-mus	.	.	.	.
=20-	=20-	=20-	=20-	=20-	=20-
0f	et	.	.	.	.
1c	le-	.	.	.	.
=21-	=21-	=21-	=21-	=21-	=21-
0g	-te-	00.r	.	00.r	.
1c,>	-mur	.	.	.	.
=22-	=22-	=22-	=22-	=22-	=22-
1c	in	.	.	.	.
0g	e-	.	.	.	.
=23-	=23-	=23-	=23-	=23-	=23-
1c	-a	1r	.	1r	.
1r	.	1c	e-	1cc	e-
1r	.	1c	-xul-	1cc	-xul-
=24-	=24-	=24-	=24-	=24-	=24-
0c	e-	0c	-te-	0cc	-te-
1g	-xul-	1c	-mus	1cc,>	-mus
=25-	=25-	=25-	=25-	=25-	=25-
0d	-te-	0c	et	0cc	et
1G,>	-mus	1g	le-	1b	le-
=26-	=26-	=26-	=26-	=26-	=26-
0c	et	0c	-te-	0cc	-te-
1c	le-	1c	-mur	1cc	-mur
=27-	=27-	=27-	=27-	=27-	=27-
0g	-te-	1r	.	1r	.
.	.	1r	.	1r	.
!LO:SIC:v:t=custos d	!	!	!	!	!
!LO:LB:g=original	!	!	!	!	!
*	*	*lig	*	*lig	*
1d,	-mur	1d	in	1a,>	in
=28-	=28-	=28-	=28-	=28-	=28-
1g	in	1c	.	1cc	e-
*	*	*Xlig	*	*Xlig	*
0c	e-	0A	e-	0cc,>	-a
=29-	=29-	=29-	=29-	=29-	=29-
1g	-a	1G	-a	1b	al-
1r	.	1G	Al-	1dd	-le-
!	!	!LO:PB:g=original	!	!	!
1r	.	1c	-le-	1cc	.
=30-	=30-	=30-	=30-	=30-	=30-
00.r	.	0g	-lu-	0b	-lu-
.	.	1c	-ia	1cc,>	-ia
=31-	=31-	=31-	=31-	=31-	=31-
.	.	1f	Al-	1cc	al-
.	.	1c	-l(e-	1cc	-le-
.	.	1G	-lu-	1b	-lu-
=32-	=32-	=32-	=32-	=32-	=32-
1r	.	1c	-i)a	1cc	-ia
1c	Al-	1r	.	1r	.
1B,>	-le-	1r	.	1r	.
=33-	=33-	=33-	=33-	=33-	=33-
0c	-lu-	00.r	.	00.r	.
1g,>	-ia	.	.	.	.
=34-	=34-	=34-	=34-	=34-	=34-
1f	Al-	.	.	.	.
1c	-le-	.	.	.	.
1G,>	-lu-	.	.	.	.
=35-	=35-	=35-	=35-	=35-	=35-
0c	-ia	1r	.	1r	.
.	.	1r	.	1r	.
!	!	!	!	!LO:SIC:v:l:s:t=custos słowny le	!
!	!	!	!	!LO:TX:t=P:problem:brak dalej źródła	!
1c,>	Al-	1c	Al-	1cc	al
!	!	!	!	!LO:SIC:v:t=custos b	!
!	!	!	!	!LO:PB:g=original	!
=36-	=36-	=36-	=36-	=36-	=36-
0G	-le-	0g	-l(e-	1%3ryy	.
1G,>	-lu-	1g	-lu-	.	.
=37-	=37-	=37-	=37-	=37-	=37-
0c	-ia	0c	-i)a	1%3ryy	.
1c,>	Al-	1c	Al-	.	.
=38-	=38-	=38-	=38-	=38-	=38-
0g	-le-	0G	-l(e-	1%3ryy	.
1g,>	-lu-	1G	-lu-	.	.
=39-	=39-	=39-	=39-	=39-	=39-
0c	-ia	0c	-i)a	1%3ryy	.
1c,>	Al-	1c	Al-	.	.
=40-	=40-	=40-	=40-	=40-	=40-
0G	-le-	0g	-l(e-	1%3ryy	.
1G	-lu-	1g	-lu-	.	.
!LO:SIC:v:t=custos c	!	!	!	!	!
!LO:LB:g=original	!	!	!	!	!
=41-	=41-	=41-	=41-	=41-	=41-
*M2/1	*	*M2/1	*	*	*
*met(C|)	*	*met(C|)	*	*	*
2c/	-ia	2c/	-i)a	0ryy	.
2c/	Al-	2c/	Al-	.	.
1.f	-le-	1.f	-le-	.	.
=42-	=42-	=42-	=42-	=42-	=42-
.	.	.	.	0.ryy	.
2f\	-lu-	2f\	-lu-	.	.
0c;;	-ia	0c;;	-ia	.	.
=-	=-	=-	=-	=-	=-
*-	*-	*-	*-	*-	*-
!!!system-decoration: [(g1)][(g2)]
!!!AIN: 3 empty
!!!ENC: Anastazja Marusiak
!!!END: 2021-10-29
!!!EED: Jędrzej Mróz
!!!ESR: 2021-11-03
!!!RDF**kern: > = above
!!!RDF**kern: < = below
